X: 1
T: the Volunteer
M: C|
L: 1/8
R: Reel
S: MS of unknown origin
Z: 2011 John Chambers <jc:trillian.mit.edu>
K: G
GE \
| "G"DEGA BG~G2 | AGBG AGEG | "C"c2cB cBAG | "Am"E2ED E2GE |
| "G"DEGA BG~G2 | AGBG AGEG | "C"c2cB cAGE | "D7"D2DD D2 :|
|: Bc \
| "G"d2{c}Bd "D"c2{B}Ac | "G"B2{A}GB AGEG | "C"c2cB cBAG | "Am"E2ED E2Bc |
| "G"d2{c}Bd "D"c2{B}Ac | "G"B2{A}GB AGEG | "G"cded cAGE | "D7"D2DD D2 :|
